synths/sAVAX.svg

<svg width="42" height="42" viewBox="0 0 42 42" fill="none" xmlns="http://www.w3.org/2000/svg">
<g clip-path="url(#clip0_7277_57970)">
<mask id="mask0_7277_57970" style="mask-type:alpha" maskUnits="userSpaceOnUse" x="0" y="0" width="42" height="42">
<circle cx="21" cy="21" r="21" fill="url(#paint0_linear_7277_57970)"/>
</mask>
<g mask="url(#mask0_7277_57970)">
<circle cx="21" cy="21" r="21" fill="#34EDB3"/>
<circle cx="21" cy="21" r="18.2" fill="white"/>
</g>
<circle cx="21" cy="21" r="16.1" fill="#06061B"/>
<g clip-path="url(#clip1_7277_57970)">
<path d="M30.9299 10.4237H11.0486V28.4934H30.9299V10.4237Z" fill="white"/>
<path fill-rule="evenodd" clip-rule="evenodd" d="M37.0893 21C37.0893 29.88 29.886 37.0786 21.0001 37.0786C12.1142 37.0786 4.91077 29.88 4.91077 21C4.91077 12.12 12.1142 4.92139 21.0001 4.92139C29.886 4.92139 37.0893 12.12 37.0893 21ZM16.4408 27.3984H13.3183C12.6622 27.3984 12.3381 27.3984 12.1405 27.2721C11.927 27.1338 11.7966 26.9047 11.7808 26.6519C11.7689 26.419 11.931 26.1345 12.2551 25.5657L19.9649 11.9852C20.293 11.4085 20.459 11.1201 20.6684 11.0135C20.8937 10.8989 21.1625 10.8989 21.3878 11.0135C21.5973 11.1201 21.7633 11.4085 22.0913 11.9852L23.6763 14.7501L23.6844 14.7642C24.0387 15.3829 24.2184 15.6966 24.2969 16.0259C24.3838 16.3853 24.3838 16.7645 24.2969 17.1239C24.2178 17.4557 24.0399 17.7717 23.6803 18.3998L19.6305 25.5538L19.62 25.5722C19.2634 26.1959 19.0826 26.5121 18.8321 26.7506C18.5594 27.0114 18.2313 27.2008 17.8716 27.3077C17.5436 27.3984 17.176 27.3984 16.4408 27.3984ZM24.3261 27.3984H28.8003C29.4603 27.3984 29.7924 27.3984 29.9901 27.2683C30.2035 27.13 30.3378 26.8968 30.3498 26.6442C30.3612 26.4187 30.2027 26.1453 29.892 25.6096C29.8813 25.5914 29.8706 25.5728 29.8597 25.5539L27.6185 21.7226L27.593 21.6794C27.2781 21.1472 27.1191 20.8785 26.915 20.7746C26.6898 20.66 26.4248 20.66 26.1996 20.7746C25.9941 20.8812 25.8281 21.1617 25.5 21.7265L23.2668 25.5579L23.2592 25.5711C22.9323 26.135 22.7689 26.4168 22.7807 26.648C22.7965 26.9009 22.9269 27.1338 23.1403 27.2721C23.334 27.3984 23.666 27.3984 24.3261 27.3984Z" fill="#E84142"/>
</g>
</g>
<defs>
<linearGradient id="paint0_linear_7277_57970" x1="21" y1="0" x2="21" y2="61.4091" gradientUnits="userSpaceOnUse">
<stop stop-color="#08021E"/>
<stop offset="1" stop-color="#1F0777"/>
</linearGradient>
<clipPath id="clip0_7277_57970">
<rect width="42" height="42" fill="white"/>
</clipPath>
<clipPath id="clip1_7277_57970">
<rect width="32.2" height="32.2" fill="white" transform="translate(4.90002 4.90002)"/>
</clipPath>
</defs>
</svg>

<svg xmlns="http://www.w3.org/2000/svg" width="42" height="42" fill="none"><g clip-path="url(#a)"><mask id="c" width="42" height="42" x="0" y="0" maskUnits="userSpaceOnUse" style="mask-type:alpha"><circle cx="21" cy="21" r="21" fill="url(#b)"/></mask><g mask="url(#c)"><circle cx="21" cy="21" r="21" fill="#34EDB3"/><circle cx="21" cy="21" r="18.2" fill="#fff"/></g><circle cx="21" cy="21" r="16.1" fill="#06061B"/><g clip-path="url(#d)"><path fill="#fff" d="M30.93 10.424H11.049v18.07h19.88v-18.07Z"/><path fill="#E84142" fill-rule="evenodd" d="M37.09 21c0 8.88-7.204 16.079-16.09 16.079S4.91 29.88 4.91 21 12.115 4.921 21 4.921 37.09 12.12 37.09 21Zm-20.65 6.398h-3.122c-.656 0-.98 0-1.178-.126a.793.793 0 0 1-.36-.62c-.011-.233.151-.518.475-1.086l7.71-13.58c.328-.578.494-.866.703-.973a.796.796 0 0 1 .72 0c.21.107.375.396.703.972l1.585 2.765.008.014c.355.619.534.933.613 1.262.087.36.087.739 0 1.098-.08.332-.257.648-.617 1.276l-4.05 7.154-.01.018c-.357.624-.537.94-.788 1.179-.273.26-.6.45-.96.557-.328.09-.696.09-1.431.09Zm7.886 0H28.8c.66 0 .992 0 1.19-.13a.79.79 0 0 0 .36-.624c.011-.225-.147-.499-.458-1.034l-.032-.056-2.241-3.831-.026-.044c-.315-.532-.474-.8-.678-.904a.787.787 0 0 0-.715 0c-.206.106-.372.387-.7.952l-2.233 3.83-.008.014c-.327.564-.49.846-.478 1.077a.8.8 0 0 0 .36.624c.193.126.525.126 1.185.126Z" clip-rule="evenodd"/></g></g><defs><clipPath id="a"><path fill="#fff" d="M0 0h42v42H0z"/></clipPath><clipPath id="d"><path fill="#fff" d="M4.9 4.9h32.2v32.2H4.9z"/></clipPath><linearGradient id="b" x1="21" x2="21" y1="0" y2="61.409" gradientUnits="userSpaceOnUse"><stop stop-color="#08021E"/><stop offset="1" stop-color="#1F0777"/></linearGradient></defs></svg>
